X: 7
T: A Fig For A Kiss
R: slip jig
M: 9/8
L: 1/8
K: Edor
|: G2 B E2 B BAG | F2 A D2 A AGF | G2 B E2 B BAG | BdB AGF E3 :|e2 d e2 f afd | e2 f g2 a bag | e2 d e2 f gfe | dcB AGF E3 |e2 f g2 a bag | f2 d d2 f agf | bag agf gfe | dcB AGF E3 |]


Tune 750	Setting 29347

